X:96
T:96 Lady Villier's Delight
C:Welch MS
I:abc2nwc
M:3/8
L:1/16
K:G
(3def|g2d2d2|d2B2G2|A2ABcA|B2G2  (3def|g2d2d2|d2B2G2|A2AGAB|G4 (3def||
g2d2d2|d2B2G2|A2ABcA|B2G2  (3def|g2d2d2|d2B2G2|A2AGAB|G4||
D2|F2A2c2|B2d2f2|f2a2^c2|d4 (3def|g2d2d2|d2B2G2|A2AGAB|G4D2|
F2A2c2|B2d2f2|f2a2^c2|d4 (3def|g2d2d2|d2B2G2|A2AGAB|G4|]

